humanity-icon-theme/Humanity-Dark/apps/24/nm-stage03-connecting02.svg

<?xml version="1.0" encoding="UTF-8" standalone="no"?>
<!-- Created with Inkscape (http://www.inkscape.org/) -->

<svg
   xmlns:svg="http://www.w3.org/2000/svg"
   xmlns="http://www.w3.org/2000/svg"
   version="1.0"
   width="24"
   height="24"
   id="svg3315">
  <defs
     id="defs3317" />
  <path
     d="M 10.503346,15.962874 8.0031196,20.293393"
     id="path3279"
     style="opacity:0.2;fill:none;stroke:#878787;stroke-width:1px;stroke-linecap:round;stroke-linejoin:miter;stroke-opacity:1" />
  <path
     d="M 17.009358,4.6941299 14.508,9.0266104"
     id="path3281"
     style="fill:none;stroke:#878787;stroke-width:1px;stroke-linecap:round;stroke-linejoin:miter;stroke-opacity:1" />
  <path
     d="M 11.469466,16.363053 10.175253,21.19312"
     id="path2629"
     style="opacity:0.175;fill:none;stroke:#878787;stroke-width:1px;stroke-linecap:round;stroke-linejoin:miter;stroke-opacity:1" />
  <path
     d="M 14.837225,3.7944029 13.542426,8.6266567"
     id="path2631"
     style="opacity:0.875;fill:none;stroke:#878787;stroke-width:1px;stroke-linecap:round;stroke-linejoin:miter;stroke-opacity:1" />
  <path
     d="m 12.506239,16.499547 0,5.000453"
     id="path3403"
     style="opacity:0.15;fill:none;stroke:#878787;stroke-width:1px;stroke-linecap:round;stroke-linejoin:miter;stroke-opacity:1" />
  <path
     d="m 12.506239,3.4875227 0,5.0027173"
     id="path3405"
     style="opacity:0.75;fill:none;stroke:#878787;stroke-width:1px;stroke-linecap:round;stroke-linejoin:miter;stroke-opacity:1" />
  <path
     d="m 13.543013,16.363053 1.294211,4.830067"
     id="path3407"
     style="opacity:0.125;fill:none;stroke:#878787;stroke-width:1px;stroke-linecap:round;stroke-linejoin:miter;stroke-opacity:1" />
  <path
     d="m 10.175253,3.7944028 1.294798,4.832254"
     id="path3409"
     style="opacity:0.675;fill:none;stroke:#878787;stroke-width:1px;stroke-linecap:round;stroke-linejoin:miter;stroke-opacity:1" />
  <path
     d="m 14.509132,15.962874 2.500226,4.330519"
     id="path3415"
     style="opacity:0.1;fill:none;stroke:#878787;stroke-width:1px;stroke-linecap:round;stroke-linejoin:miter;stroke-opacity:1" />
  <path
     d="m 8.0031195,4.6941298 2.5013585,4.33248"
     id="path3417"
     style="opacity:0.6;fill:none;stroke:#878787;stroke-width:1px;stroke-linecap:round;stroke-linejoin:miter;stroke-opacity:1" />
  <path
     d="m 15.338758,15.326279 3.535854,3.535855"
     id="path3419"
     style="opacity:0.075;fill:none;stroke:#878787;stroke-width:1px;stroke-linecap:round;stroke-linejoin:miter;stroke-opacity:1" />
  <path
     d="m 6.1378665,6.1253889 3.5374558,3.537455"
     id="path3421"
     style="opacity:0.55;fill:none;stroke:#878787;stroke-width:1px;stroke-linecap:round;stroke-linejoin:miter;stroke-opacity:1" />
  <path
     d="m 15.975351,14.496654 4.330518,2.500227"
     id="path3423"
     style="opacity:0.05;fill:none;stroke:#878787;stroke-width:1px;stroke-linecap:round;stroke-linejoin:miter;stroke-opacity:1" />
  <path
     d="M 4.7066068,7.9906426 9.0390872,10.492001"
     id="path3425"
     style="opacity:0.5;fill:none;stroke:#878787;stroke-width:1px;stroke-linecap:round;stroke-linejoin:miter;stroke-opacity:1" />
  <path
     d="m 16.37553,13.530534 4.830067,1.294213"
     id="path3427"
     style="opacity:0.025;fill:none;stroke:#878787;stroke-width:1px;stroke-linecap:round;stroke-linejoin:miter;stroke-opacity:1" />
  <path
     d="M 3.8068803,10.162775 8.639134,11.457574"
     id="path3429"
     style="opacity:0.45;fill:none;stroke:#878787;stroke-width:1px;stroke-linecap:round;stroke-linejoin:miter;stroke-opacity:1" />
  <path
     d="m 3.4999997,12.493762 5.0027176,-1e-6"
     id="path3433"
     style="opacity:0.4;fill:none;stroke:#878787;stroke-width:1px;stroke-linecap:round;stroke-linejoin:miter;stroke-opacity:1" />
  <path
     d="M 3.806881,14.824747 8.6391352,13.529948"
     id="path3437"
     style="opacity:0.35;fill:none;stroke:#878787;stroke-width:0.99999994px;stroke-linecap:round;stroke-linejoin:miter;stroke-opacity:1" />
  <path
     d="M 4.7066069,16.996881 9.0390877,14.495522"
     id="path2407"
     style="opacity:0.3;fill:none;stroke:#878787;stroke-width:1px;stroke-linecap:round;stroke-linejoin:miter;stroke-opacity:1" />
  <path
     d="m 6.1378678,18.862134 3.537455,-3.537456"
     id="path2413"
     style="opacity:0.25;fill:none;stroke:#878787;stroke-width:1px;stroke-linecap:round;stroke-linejoin:miter;stroke-opacity:1" />
  <path
     d="M 18.874611,6.1253889 15.337156,9.6628447"
     id="path2401"
     style="opacity:0;fill:none;stroke:#878787;stroke-width:1px;stroke-linecap:round;stroke-linejoin:miter;stroke-opacity:1" />
  <path
     d="m 21.205597,10.162775 -4.832254,1.294799"
     id="path2405"
     style="opacity:0;fill:none;stroke:#878787;stroke-width:1px;stroke-linecap:round;stroke-linejoin:miter;stroke-opacity:1" />
  <path
     d="M 20.30587,7.9906419 15.97339,10.492001"
     id="path2410"
     style="opacity:0;fill:none;stroke:#878787;stroke-width:1px;stroke-linecap:round;stroke-linejoin:miter;stroke-opacity:1" />
  <path
     d="m 21.512478,12.493762 -5.002718,0"
     id="path2414"
     style="opacity:0;fill:none;stroke:#878787;stroke-width:1px;stroke-linecap:round;stroke-linejoin:miter;stroke-opacity:1" />
</svg>

<?xml version="1.0" encoding="UTF-8" standalone="no"?>
<!-- Created with Inkscape (http://www.inkscape.org/) -->
<svg
   xmlns:svg="http://www.w3.org/2000/svg"
   xmlns="http://www.w3.org/2000/svg"
   version="1.0"
   width="24"
   height="24"
   id="svg3315">
  <defs
     id="defs3317" />
  <path
     d="M 10.503346,15.962874 L 8.0031196,20.293393"
     id="path3279"
     style="opacity:0.2;fill:none;stroke:#878787;stroke-width:1px;stroke-linecap:round;stroke-linejoin:miter;stroke-opacity:1" />
  <path
     d="M 17.009358,4.6941299 L 14.508,9.0266104"
     id="path3281"
     style="fill:none;stroke:#878787;stroke-width:1px;stroke-linecap:round;stroke-linejoin:miter;stroke-opacity:1" />
  <path
     d="M 11.469466,16.363053 L 10.175253,21.19312"
     id="path2629"
     style="opacity:0.175;fill:none;stroke:#878787;stroke-width:1px;stroke-linecap:round;stroke-linejoin:miter;stroke-opacity:1" />
  <path
     d="M 14.837225,3.7944029 L 13.542426,8.6266567"
     id="path2631"
     style="opacity:0.875;fill:none;stroke:#878787;stroke-width:1px;stroke-linecap:round;stroke-linejoin:miter;stroke-opacity:1" />
  <path
     d="M 12.506239,16.499547 L 12.506239,21.5"
     id="path3403"
     style="opacity:0.15;fill:none;stroke:#878787;stroke-width:1px;stroke-linecap:round;stroke-linejoin:miter;stroke-opacity:1" />
  <path
     d="M 12.506239,3.4875227 L 12.506239,8.49024"
     id="path3405"
     style="opacity:0.75;fill:none;stroke:#878787;stroke-width:1px;stroke-linecap:round;stroke-linejoin:miter;stroke-opacity:1" />
  <path
     d="M 13.543013,16.363053 L 14.837224,21.19312"
     id="path3407"
     style="opacity:0.125;fill:none;stroke:#878787;stroke-width:1px;stroke-linecap:round;stroke-linejoin:miter;stroke-opacity:1" />
  <path
     d="M 10.175253,3.7944028 L 11.470051,8.6266568"
     id="path3409"
     style="opacity:0.675;fill:none;stroke:#878787;stroke-width:1px;stroke-linecap:round;stroke-linejoin:miter;stroke-opacity:1" />
  <path
     d="M 14.509132,15.962874 L 17.009358,20.293393"
     id="path3415"
     style="opacity:0.1;fill:none;stroke:#878787;stroke-width:1px;stroke-linecap:round;stroke-linejoin:miter;stroke-opacity:1" />
  <path
     d="M 8.0031195,4.6941298 L 10.504478,9.0266098"
     id="path3417"
     style="opacity:0.6;fill:none;stroke:#878787;stroke-width:1px;stroke-linecap:round;stroke-linejoin:miter;stroke-opacity:1" />
  <path
     d="M 15.338758,15.326279 L 18.874612,18.862134"
     id="path3419"
     style="opacity:0.075;fill:none;stroke:#878787;stroke-width:1px;stroke-linecap:round;stroke-linejoin:miter;stroke-opacity:1" />
  <path
     d="M 6.1378665,6.1253889 L 9.6753223,9.6628439"
     id="path3421"
     style="opacity:0.55;fill:none;stroke:#878787;stroke-width:1px;stroke-linecap:round;stroke-linejoin:miter;stroke-opacity:1" />
  <path
     d="M 15.975351,14.496654 L 20.305869,16.996881"
     id="path3423"
     style="opacity:0.05;fill:none;stroke:#878787;stroke-width:1px;stroke-linecap:round;stroke-linejoin:miter;stroke-opacity:1" />
  <path
     d="M 4.7066068,7.9906426 L 9.0390872,10.492001"
     id="path3425"
     style="opacity:0.5;fill:none;stroke:#878787;stroke-width:1px;stroke-linecap:round;stroke-linejoin:miter;stroke-opacity:1" />
  <path
     d="M 16.37553,13.530534 L 21.205597,14.824747"
     id="path3427"
     style="opacity:0.025;fill:none;stroke:#878787;stroke-width:1px;stroke-linecap:round;stroke-linejoin:miter;stroke-opacity:1" />
  <path
     d="M 3.8068803,10.162775 L 8.639134,11.457574"
     id="path3429"
     style="opacity:0.45;fill:none;stroke:#878787;stroke-width:1px;stroke-linecap:round;stroke-linejoin:miter;stroke-opacity:1" />
  <path
     d="M 3.4999997,12.493762 L 8.5027173,12.493761"
     id="path3433"
     style="opacity:0.4;fill:none;stroke:#878787;stroke-width:1px;stroke-linecap:round;stroke-linejoin:miter;stroke-opacity:1" />
  <path
     d="M 3.806881,14.824747 L 8.6391352,13.529948"
     id="path3437"
     style="opacity:0.35;fill:none;stroke:#878787;stroke-width:0.99999994px;stroke-linecap:round;stroke-linejoin:miter;stroke-opacity:1" />
  <path
     d="M 4.7066069,16.996881 L 9.0390877,14.495522"
     id="path2407"
     style="opacity:0.3;fill:none;stroke:#878787;stroke-width:1px;stroke-linecap:round;stroke-linejoin:miter;stroke-opacity:1" />
  <path
     d="M 6.1378678,18.862134 L 9.6753228,15.324678"
     id="path2413"
     style="opacity:0.25;fill:none;stroke:#878787;stroke-width:1px;stroke-linecap:round;stroke-linejoin:miter;stroke-opacity:1" />
  <path
     d="M 18.874611,6.1253889 L 15.337156,9.6628447"
     id="path2401"
     style="opacity:0;fill:none;stroke:#878787;stroke-width:1px;stroke-linecap:round;stroke-linejoin:miter;stroke-opacity:1" />
  <path
     d="M 21.205597,10.162775 L 16.373343,11.457574"
     id="path2405"
     style="opacity:0;fill:none;stroke:#878787;stroke-width:1px;stroke-linecap:round;stroke-linejoin:miter;stroke-opacity:1" />
  <path
     d="M 20.30587,7.9906419 L 15.97339,10.492001"
     id="path2410"
     style="opacity:0;fill:none;stroke:#878787;stroke-width:1px;stroke-linecap:round;stroke-linejoin:miter;stroke-opacity:1" />
  <path
     d="M 21.512478,12.493762 L 16.50976,12.493762"
     id="path2414"
     style="opacity:0;fill:none;stroke:#878787;stroke-width:1px;stroke-linecap:round;stroke-linejoin:miter;stroke-opacity:1" />
</svg>
